icon-svg/extension-uk.svg

<svg xmlns="http://www.w3.org/2000/svg" fill="#44739e" viewBox="0 0 24 24"><path d="M3.077 6.139c-.016-.186-.406-.278-.611-.641a.35.35 0 0 1-.023-.259c.048-.189.275-.284.375-.315.587-.182 1.148-.384 1.741-.547a5.1 5.1 0 0 0 1.8-.741c.429-.319.952-1.3.857-1.454-.054-.088-.428-.009-.45.166a1.189 1.189 0 0 1-.552.865 3.98 3.98 0 0 1-1.75.8 10.14 10.14 0 0 0-1.986.634.85.85 0 0 0-.478.629.624.624 0 0 0 .071.332 1.505 1.505 0 0 0 .771.738Zm3.026.479-.106-.073-.791.606Zm-1.284.955.443.335a.127.127 0 0 0 .142.006l1.31-.814a.12.12 0 0 0 0-.2l-.434-.3a.126.126 0 0 0-.136 0l-.044.018.366.254.079.242-1.16.713-.51-.377c-.057-.044.026-.079.089-.116l.239-.183-.376.223a.119.119 0 0 0-.008.199m.706-2.598L3.114 6.53a.463.463 0 0 0-.032.756l15.745 12.18a.462.462 0 0 0 .6-.027l2.285-2.123a.465.465 0 0 0-.039-.712L6.053 4.992a.464.464 0 0 0-.528-.017m.854 4.245-.527-.408.348-.244.5.384Zm13.232 6.686.941.72-.3.285-.953-.738zm-.555.472L20 17.1l-.3.286-.953-.739Zm-.627.533.941.721-.3.285-.953-.738zm-.628.556.941.72-.3.286-.952-.739zm-2.459-4.454.316.258-.509.417-.336-.261zm-.821 1.772.5.385-.319.268-.526-.408zm-1.632-1.234.5.384-.319.268-.527-.408zm-1.029-3.115.317.258-.509.417-.337-.261zM10.9 12.1l.5.385-.319.267-.527-.408zm-1.526-1.155.5.385-.319.268-.526-.408ZM8.653 8.1l.312.255-.551.382-.336-.26Zm-.49 1.894-.319.268-.527-.408.343-.244ZM6.571 6.208l.677.479a.193.193 0 0 1-.008.319L5.2 8.3a.189.189 0 0 1-.22-.01l-.691-.531a.192.192 0 0 1 .018-.317L6.36 6.2a.2.2 0 0 1 .211.008m12.908 13.399a.548.548 0 0 1-.709.032L2.731 7.232l-.007 2.1 16.214 12.66 2.715-2.6.376-2.151z"/></svg>

<?xml version="1.0" encoding="UTF-8"?>
<svg width="24px" fill="#44739e" height="24px" viewBox="0 0 24 24" version="1.1" xmlns="http://www.w3.org/2000/svg" xmlns:xlink="http://www.w3.org/1999/xlink">
            <path d="M 3.077,6.139 C 3.061,5.953 2.671,5.861 2.466,5.498 A 0.35,0.35 0 0 1 2.443,5.239 C 2.491,5.05 2.718,4.955 2.818,4.924 3.405,4.742 3.966,4.54 4.559,4.377 a 5.1,5.1 0 0 0 1.8,-0.741 C 6.788,3.317 7.311,2.336 7.216,2.182 7.162,2.094 6.788,2.173 6.766,2.348 A 1.189,1.189 0 0 1 6.214,3.213 3.978,3.978 0 0 1 4.464,4.013 10.135,10.135 0 0 0 2.478,4.647 0.85,0.85 0 0 0 2,5.276 0.624,0.624 0 0 0 2.071,5.608 1.505,1.505 0 0 0 2.842,6.346 Z M 6.103,6.618 5.997,6.545 5.206,7.151 Z M 4.819,7.573 5.262,7.908 A 0.127,0.127 0 0 0 5.404,7.914 L 6.714,7.1 a 0.12,0.12 0 0 0 0,-0.2 L 6.28,6.6 a 0.126,0.126 0 0 0 -0.136,0 L 6.1,6.618 6.466,6.872 6.545,7.114 5.385,7.827 4.875,7.45 C 4.818,7.406 4.901,7.371 4.964,7.334 L 5.203,7.151 4.827,7.374 A 0.119,0.119 0 0 0 4.819,7.573 Z M 5.525,4.975 3.114,6.53 A 0.463,0.463 0 0 0 3.082,7.286 l 15.745,12.18 a 0.462,0.462 0 0 0 0.6,-0.027 l 2.285,-2.123 A 0.465,0.465 0 0 0 21.673,16.604 L 6.053,4.992 A 0.464,0.464 0 0 0 5.525,4.975 Z M 6.379,9.22 5.852,8.812 6.2,8.568 6.7,8.952 Z m 13.232,6.686 0.941,0.72 -0.3,0.285 -0.953,-0.738 z M 19.056,16.378 20,17.1 19.7,17.386 18.747,16.647 Z m -0.627,0.533 0.941,0.721 -0.3,0.285 -0.953,-0.738 z m -0.628,0.556 0.941,0.72 -0.3,0.286 -0.952,-0.739 z m -2.459,-4.454 0.316,0.258 -0.509,0.417 -0.336,-0.261 z m -0.821,1.772 0.5,0.385 -0.319,0.268 -0.526,-0.408 z m -1.632,-1.234 0.5,0.384 -0.319,0.268 -0.527,-0.408 z m -1.029,-3.115 0.317,0.258 -0.509,0.417 -0.337,-0.261 z m -0.96,1.664 0.5,0.385 -0.319,0.267 -0.527,-0.408 z M 9.374,10.945 9.874,11.33 9.555,11.598 9.029,11.19 Z M 8.653,8.1 8.965,8.355 8.414,8.737 8.078,8.477 Z M 8.163,9.994 7.844,10.262 7.317,9.854 7.66,9.61 Z M 6.571,6.208 7.248,6.687 A 0.193,0.193 0 0 1 7.24,7.006 L 5.2,8.3 A 0.189,0.189 0 0 1 4.98,8.29 L 4.289,7.759 A 0.192,0.192 0 0 1 4.307,7.442 L 6.36,6.2 A 0.2,0.2 0 0 1 6.571,6.208 Z M 19.479,19.607 A 0.548,0.548 0 0 1 18.77,19.639 L 2.731,7.232 l -0.007,2.1 16.214,12.66 2.715,-2.6 0.376,-2.151 z"/>

</svg>
